icons/svg/seamark_big/topmark_vertical_black_conepointup_big.svg

<?xml version="1.0" encoding="UTF-8" standalone="no"?>
<svg
   xmlns:dc="http://purl.org/dc/elements/1.1/"
   xmlns:cc="http://creativecommons.org/ns#"
   xmlns:rdf="http://www.w3.org/1999/02/22-rdf-syntax-ns#"
   xmlns:svg="http://www.w3.org/2000/svg"
   xmlns="http://www.w3.org/2000/svg"
   xmlns:sodipodi="http://sodipodi.sourceforge.net/DTD/sodipodi-0.dtd"
   xmlns:inkscape="http://www.inkscape.org/namespaces/inkscape"
   width="1060"
   height="1060"
   id="svg2"
   version="1.1"
   inkscape:version="0.48.4 r9939"
   sodipodi:docname="topmark_vertical_black_2conesup_big.svg">
  <defs
     id="defs13">
    <inkscape:path-effect
       effect="gears"
       id="path-effect3774"
       is_visible="true"
       teeth="6"
       phi="-1.2" />
    <inkscape:path-effect
       effect="bend_path"
       id="path-effect3772"
       is_visible="false"
       bendpath="m 95.790098,316.51174 c 144.429032,-206.42506 223.313032,-11.7428 339.548092,0"
       prop_scale="1.19"
       scale_y_rel="false"
       vertical="false"
       bendpath-nodetypes="cc" />
  </defs>
  <sodipodi:namedview
     pagecolor="#ffffff"
     bordercolor="#666666"
     borderopacity="1"
     objecttolerance="10"
     gridtolerance="10"
     guidetolerance="10"
     inkscape:pageopacity="0"
     inkscape:pageshadow="2"
     inkscape:window-width="1920"
     inkscape:window-height="1004"
     id="namedview11"
     showgrid="false"
     inkscape:zoom="0.8137931"
     inkscape:cx="505.83517"
     inkscape:cy="723.12344"
     inkscape:window-x="1680"
     inkscape:window-y="0"
     inkscape:window-maximized="1"
     inkscape:current-layer="svg2" />
  <metadata
     id="metadata2975">image/svg+xmlen<rdf:RDF>
  <cc:Work
     rdf:about="">
    <dc:format>image/svg+xml</dc:format>
    <dc:type
       rdf:resource="http://purl.org/dc/dcmitype/StillImage" />
    <dc:title></dc:title>
  </cc:Work>
</rdf:RDF>
</metadata>
  <path
     style="font-size:medium;font-style:normal;font-variant:normal;font-weight:normal;font-stretch:normal;text-indent:0;text-align:start;text-decoration:none;line-height:normal;letter-spacing:normal;word-spacing:normal;text-transform:none;direction:ltr;block-progression:tb;writing-mode:lr-tb;text-anchor:start;baseline-shift:baseline;opacity:0.43913042;color:#000000;fill:#acd8f3;fill-opacity:1;fill-rule:nonzero;stroke:#a35151;stroke-width:0;stroke-linecap:round;stroke-linejoin:miter;stroke-miterlimit:4;stroke-opacity:1;stroke-dashoffset:0;marker:none;visibility:visible;display:inline;overflow:visible;enable-background:accumulate;font-family:Sans;-inkscape-font-specification:Sans"
     d="m 531.97461,43.066547 c -5.55217,-0.192319 -11.10661,2.776645 -14.03125,7.5 l -64.625,104.374993 c -2.94645,4.77288 -3.08976,11.14421 -0.36091,16.04474 2.72885,4.90054 8.22058,8.13401 13.82966,8.14276 l 34.53125,0 0,336.9375 c 0.004,4.1469 1.71227,8.26688 4.64457,11.19918 2.9323,2.9323 7.05228,4.64096 11.19918,4.64457 l 25,0 c 4.1469,-0.004 8.26688,-1.71227 11.19918,-4.64457 2.9323,-2.9323 4.64096,-7.05228 4.64457,-11.19918 l 0,-336.9375 35.1875,0 c 5.55732,-0.002 11.00593,-3.16645 13.76245,-7.99195 2.75653,-4.82549 2.71448,-11.12602 -0.1062,-15.9143 L 545.06836,50.847797 c -2.69391,-4.559486 -7.80119,-7.594601 -13.09375,-7.78125 z"
     id="path3899"
     inkscape:connector-curvature="0"
     sodipodi:nodetypes="cccscccsccscccsccc" />
  <path
     style="color:#000000;fill:none;stroke:#000000;stroke-width:25;stroke-linecap:butt;stroke-linejoin:miter;stroke-miterlimit:4;stroke-opacity:1;stroke-dasharray:none;stroke-dashoffset:0;marker:none;visibility:visible;display:inline;overflow:visible;enable-background:accumulate"
     d="m 529.99917,514.06653 0,-399.73929"
     id="path3065"
     inkscape:connector-curvature="0"
     sodipodi:nodetypes="cc" />
  <path
     inkscape:connector-curvature="0"
     style="fill:#000000;fill-opacity:1;stroke:none"
     d="m 466.80048,163.31069 126.39738,0.005 -61.77975,-104.402853"
     id="path3822-6-6-1"
     sodipodi:nodetypes="ccc" />
</svg>

<svg width="1060" height="1060" viewBox="0 0 1060 1060" fill="none" xmlns="http://www.w3.org/2000/svg">
<path opacity="0.43913" d="M531.975 43.0664C526.422 42.8741 520.868 45.8431 517.943 50.5664L453.318 154.941C450.372 159.714 450.229 166.086 452.957 170.986C455.686 175.887 461.178 179.12 466.787 179.129H501.318V516.066C501.322 520.213 503.031 524.333 505.963 527.266C508.895 530.198 513.015 531.907 517.162 531.91H542.162C546.309 531.906 550.429 530.198 553.361 527.266C556.294 524.333 558.002 520.213 558.006 516.066V179.129H593.193C598.751 179.127 604.199 175.962 606.956 171.137C609.712 166.311 609.67 160.011 606.85 155.223L545.068 50.8477C542.374 46.2882 537.267 43.2531 531.975 43.0664Z" fill="#ACD8F3"/>
<path d="M529.999 514.066V114.327" stroke="black" stroke-width="25"/>
<path d="M466.8 163.31L593.198 163.315L531.418 58.9126" fill="black"/>
</svg>
